MODULE Module1
        CONST robtarget Home:=[[655.001518787,0.000357316,662],[0.707105832,0.001158705,0.707105832,-0.001158705],[0,-2,1,0],[9E+09,9E+09,9E+09,9E+09,9E+09,9E+09]];
    CONST robtarget MHomeIntermed:=[[655.001518787,0.000357316,572],[0.707105832,0.001158705,0.707105832,-0.001158705],[0,-2,1,0],[9E+09,9E+09,9E+09,9E+09,9E+09,9E+09]];
    CONST robtarget PreworkLogo:=[[646.792474385,0.000260894,153.928],[0,0.708264537,0.705947127,0],[0,0,0,0],[9E+09,9E+09,9E+09,9E+09,9E+09,9E+09]];
    CONST robtarget EDext_10:=[[586.114706174,72.423103323,34.960150102],[0,0.708264537,0.705947126,0],[0,-2,1,0],[9E+09,9E+09,9E+09,9E+09,9E+09,9E+09]];
    CONST robtarget EDext_20:=[[584.553424543,76.923099902,33.484468931],[0,0.708264537,0.705947126,0],[0,0,0,0],[9E+09,9E+09,9E+09,9E+09,9E+09,9E+09]];
    CONST robtarget EDext_30:=[[583.835051209,81.813887658,32.796827484],[0,0.708264537,0.705947126,0],[0,0,0,0],[9E+09,9E+09,9E+09,9E+09,9E+09,9E+09]];
    CONST robtarget EDext_40:=[[583.576141349,86.79883645,32.53910576],[0,0.708264537,0.705947126,0],[0,0,0,0],[9E+09,9E+09,9E+09,9E+09,9E+09,9E+09]];
    CONST robtarget EDext_50:=[[583.569494672,91.798552406,32.517539888],[0,0.708264537,0.705947126,0],[0,0,0,0],[9E+09,9E+09,9E+09,9E+09,9E+09,9E+09]];
    CONST robtarget EDext_60:=[[583.585881219,96.798525554,32.517539888],[0,0.708264537,0.705947126,0],[0,0,0,0],[9E+09,9E+09,9E+09,9E+09,9E+09,9E+09]];
    CONST robtarget EDext_70:=[[583.602267766,101.798498702,32.517539888],[0,0.708264537,0.705947126,0],[0,0,0,0],[9E+09,9E+09,9E+09,9E+09,9E+09,9E+09]];
    CONST robtarget EDext_80:=[[586.465242068,102.87187492,35.194930041],[0,0.708264537,0.705947126,0],[0,0,0,0],[9E+09,9E+09,9E+09,9E+09,9E+09,9E+09]];
    CONST robtarget EDext_90:=[[590.11503235,102.859913363,38.612368821],[0,0.708264537,0.705947126,0],[0,0,0,0],[9E+09,9E+09,9E+09,9E+09,9E+09,9E+09]];
    CONST robtarget EDext_100:=[[593.764822633,102.847951807,42.029807601],[0,0.708264537,0.705947126,0],[0,0,0,0],[9E+09,9E+09,9E+09,9E+09,9E+09,9E+09]];
    CONST robtarget EDext_110:=[[597.414612915,102.83599025,45.447246381],[0,0.708264537,0.705947126,0],[0,0,0,0],[9E+09,9E+09,9E+09,9E+09,9E+09,9E+09]];
    CONST robtarget EDext_120:=[[601.064403197,102.824028694,48.864685161],[0,0.708264537,0.705947126,0],[0,0,0,0],[9E+09,9E+09,9E+09,9E+09,9E+09,9E+09]];
    CONST robtarget EDext_130:=[[604.71419348,102.812067137,52.282123941],[0,0.708264537,0.705947126,0],[0,0,0,0],[9E+09,9E+09,9E+09,9E+09,9E+09,9E+09]];
    CONST robtarget EDext_140:=[[608.363983762,102.80010558,55.69956272],[0,0.708264537,0.705947126,0],[0,0,0,0],[9E+09,9E+09,9E+09,9E+09,9E+09,9E+09]];
    CONST robtarget EDext_150:=[[612.013774045,102.788144024,59.1170015],[0,0.708264537,0.705947126,0],[0,0,0,0],[9E+09,9E+09,9E+09,9E+09,9E+09,9E+09]];
    CONST robtarget EDext_160:=[[615.663564327,102.776182467,62.53444028],[0,0.708264537,0.705947126,0],[0,0,0,0],[9E+09,9E+09,9E+09,9E+09,9E+09,9E+09]];
    CONST robtarget EDext_170:=[[616.441090796,98.856366527,63.274488908],[0,0.708264537,0.705947126,0],[0,0,0,0],[9E+09,9E+09,9E+09,9E+09,9E+09,9E+09]];
    CONST robtarget EDext_180:=[[616.424704249,93.856393379,63.274488908],[0,0.708264537,0.705947126,0],[0,0,0,0],[9E+09,9E+09,9E+09,9E+09,9E+09,9E+09]];
    CONST robtarget EDext_190:=[[616.408317701,88.856420231,63.274488908],[0,0.708264537,0.705947126,0],[0,0,0,0],[9E+09,9E+09,9E+09,9E+09,9E+09,9E+09]];
    CONST robtarget EDext_200:=[[616.261812372,83.86119532,63.152640433],[0,0.708264537,0.705947126,0],[0,0,0,0],[9E+09,9E+09,9E+09,9E+09,9E+09,9E+09]];
    CONST robtarget EDext_210:=[[615.8016001,78.902500507,62.736947161],[0,0.708264537,0.705947126,0],[0,0,0,0],[9E+09,9E+09,9E+09,9E+09,9E+09,9E+09]];
    CONST robtarget EDext_220:=[[614.606219096,74.18970674,61.632139986],[0,0.708264537,0.705947126,0],[0,0,0,0],[9E+09,9E+09,9E+09,9E+09,9E+09,9E+09]];
    CONST robtarget EDext_230:=[[612.592844104,70.028770527,59.759728397],[0,0.708264537,0.705947126,0],[0,0,0,0],[9E+09,9E+09,9E+09,9E+09,9E+09,9E+09]];
    CONST robtarget EDext_240:=[[609.892527336,66.676376197,57.241632621],[0,0.708264537,0.705947126,0],[0,0,0,0],[9E+09,9E+09,9E+09,9E+09,9E+09,9E+09]];
    CONST robtarget EDext_250:=[[606.689291724,64.294960762,54.249660081],[0,0.708264537,0.705947126,0],[0,0,0,0],[9E+09,9E+09,9E+09,9E+09,9E+09,9E+09]];
    CONST robtarget EDext_260:=[[603.168618103,63.006073206,50.957108745],[0,0.708264537,0.705947126,0],[0,0,0,0],[9E+09,9E+09,9E+09,9E+09,9E+09,9E+09]];
    CONST robtarget EDext_270:=[[599.530411815,62.682731835,47.551545317],[0,0.708264537,0.705947126,0],[0,0,0,0],[9E+09,9E+09,9E+09,9E+09,9E+09,9E+09]];
    CONST robtarget EDext_280:=[[595.911361586,63.253385505,44.161174887],[0,0.708264537,0.705947126,0],[0,0,0,0],[9E+09,9E+09,9E+09,9E+09,9E+09,9E+09]];
    CONST robtarget EDext_290:=[[592.470535904,64.877193038,40.934449387],[0,0.708264537,0.705947126,0],[0,0,0,0],[9E+09,9E+09,9E+09,9E+09,9E+09,9E+09]];
    CONST robtarget EDext_300:=[[589.382490696,67.516622069,38.03492565],[0,0.708264537,0.705947126,0],[0,0,0,0],[9E+09,9E+09,9E+09,9E+09,9E+09,9E+09]];
    CONST robtarget EDext_310:=[[586.815043311,71.04421316,35.620126946],[0,0.708264537,0.705947126,0],[0,0,0,0],[9E+09,9E+09,9E+09,9E+09,9E+09,9E+09]];
    CONST robtarget FDint_10:=[[599.962913165,74.274000689,47.920938992],[0,0.708264537,0.705947126,0],[0,-2,1,0],[9E+09,9E+09,9E+09,9E+09,9E+09,9E+09]];
    CONST robtarget FDint_20:=[[603.581276195,74.832461641,51.307201115],[0,0.708264537,0.705947126,0],[0,0,0,0],[9E+09,9E+09,9E+09,9E+09,9E+09,9E+09]];
    CONST robtarget FDint_30:=[[606.883351874,76.896595787,54.392694038],[0,0.708264537,0.705947126,0],[0,0,0,0],[9E+09,9E+09,9E+09,9E+09,9E+09,9E+09]];
    CONST robtarget FDint_40:=[[609.249697633,80.656348454,56.596833252],[0,0.708264537,0.705947126,0],[0,0,0,0],[9E+09,9E+09,9E+09,9E+09,9E+09,9E+09]];
    CONST robtarget FDint_50:=[[610.188513141,85.44823721,57.461168168],[0,0.708264537,0.705947126,0],[0,0,0,0],[9E+09,9E+09,9E+09,9E+09,9E+09,9E+09]];
    CONST robtarget FDint_60:=[[610.289707437,90.446200657,57.540582233],[0,0.708264537,0.705947126,0],[0,0,0,0],[9E+09,9E+09,9E+09,9E+09,9E+09,9E+09]];
    CONST robtarget FDint_70:=[[607.405891562,91.498484689,54.837154608],[0,0.708264537,0.705947126,0],[0,0,0,0],[9E+09,9E+09,9E+09,9E+09,9E+09,9E+09]];
    CONST robtarget FDint_80:=[[603.75610128,91.510446246,51.419715828],[0,0.708264537,0.705947126,0],[0,0,0,0],[9E+09,9E+09,9E+09,9E+09,9E+09,9E+09]];
    CONST robtarget FDint_90:=[[600.106310996,91.522407802,48.002277048],[0,0.708264537,0.705947126,0],[0,0,0,0],[9E+09,9E+09,9E+09,9E+09,9E+09,9E+09]];
    CONST robtarget FDint_100:=[[596.456520714,91.534369359,44.584838268],[0,0.708264537,0.705947126,0],[0,0,0,0],[9E+09,9E+09,9E+09,9E+09,9E+09,9E+09]];
    CONST robtarget FDint_110:=[[592.806730431,91.546330915,41.167399488],[0,0.708264537,0.705947126,0],[0,0,0,0],[9E+09,9E+09,9E+09,9E+09,9E+09,9E+09]];
    CONST robtarget FDint_120:=[[589.715788502,90.788103468,38.275589701],[0,0.708264537,0.705947126,0],[0,0,0,0],[9E+09,9E+09,9E+09,9E+09,9E+09,9E+09]];
    CONST robtarget FDint_130:=[[589.765015702,85.78898354,38.337023095],[0,0.708264537,0.705947126,0],[0,0,0,0],[9E+09,9E+09,9E+09,9E+09,9E+09,9E+09]];
    CONST robtarget FDint_140:=[[590.549132862,80.955836384,39.086045471],[0,0.708264537,0.705947126,0],[0,0,0,0],[9E+09,9E+09,9E+09,9E+09,9E+09,9E+09]];
    CONST robtarget FDint_150:=[[592.826248159,77.108471586,41.229979287],[0,0.708264537,0.705947126,0],[0,0,0,0],[9E+09,9E+09,9E+09,9E+09,9E+09,9E+09]];
    CONST robtarget FDint_160:=[[596.080302282,74.926291668,44.283538736],[0,0.708264537,0.705947126,0],[0,0,0,0],[9E+09,9E+09,9E+09,9E+09,9E+09,9E+09]];
    CONST robtarget FDint_170:=[[599.688666201,74.27750162,47.664143044],[0,0.708264537,0.705947126,0],[0,0,0,0],[9E+09,9E+09,9E+09,9E+09,9E+09,9E+09]];
    CONST robtarget GR1ext_10:=[[583.361053859,28.197694966,32.517539888],[0,0.708264537,0.705947126,0],[0,0,0,0],[9E+09,9E+09,9E+09,9E+09,9E+09,9E+09]];
    CONST robtarget GR1ext_20:=[[586.280726889,31.206414268,35.242079768],[0,0.708264537,0.705947126,0],[0,0,0,0],[9E+09,9E+09,9E+09,9E+09,9E+09,9E+09]];
    CONST robtarget GR1ext_30:=[[589.200399919,34.215133569,37.966619649],[0,0.708264537,0.705947126,0],[0,0,0,0],[9E+09,9E+09,9E+09,9E+09,9E+09,9E+09]];
    CONST robtarget GR1ext_40:=[[592.120072949,37.223852871,40.69115953],[0,0.708264537,0.705947126,0],[0,0,0,0],[9E+09,9E+09,9E+09,9E+09,9E+09,9E+09]];
    CONST robtarget GR1ext_50:=[[595.03974598,40.232572172,43.41569941],[0,0.708264537,0.705947126,0],[0,0,0,0],[9E+09,9E+09,9E+09,9E+09,9E+09,9E+09]];
    CONST robtarget GR1ext_60:=[[595.331534735,44.750935389,43.675044196],[0,0.708264537,0.705947126,0],[0,0,0,0],[9E+09,9E+09,9E+09,9E+09,9E+09,9E+09]];
    CONST robtarget GR1ext_70:=[[591.681744452,44.762896946,40.257605417],[0,0.708264537,0.705947126,0],[0,0,0,0],[9E+09,9E+09,9E+09,9E+09,9E+09,9E+09]];
    CONST robtarget GR1ext_80:=[[588.03195417,44.774858502,36.840166637],[0,0.708264537,0.705947126,0],[0,0,0,0],[9E+09,9E+09,9E+09,9E+09,9E+09,9E+09]];
    CONST robtarget GR1ext_90:=[[584.382163888,44.786820059,33.422727857],[0,0.708264537,0.705947126,0],[0,0,0,0],[9E+09,9E+09,9E+09,9E+09,9E+09,9E+09]];
    CONST robtarget GR1ext_100:=[[583.427478422,48.465602581,32.517539888],[0,0.708264537,0.705947126,0],[0,0,0,0],[9E+09,9E+09,9E+09,9E+09,9E+09,9E+09]];
    CONST robtarget GR1ext_110:=[[583.443864969,53.465575729,32.517539888],[0,0.708264537,0.705947126,0],[0,0,0,0],[9E+09,9E+09,9E+09,9E+09,9E+09,9E+09]];
    CONST robtarget GR1ext_120:=[[585.23616287,56.015848157,34.187893301],[0,0.708264537,0.705947126,0],[0,0,0,0],[9E+09,9E+09,9E+09,9E+09,9E+09,9E+09]];
    CONST robtarget GR1ext_130:=[[588.885953152,56.003886601,37.605332081],[0,0.708264537,0.705947126,0],[0,0,0,0],[9E+09,9E+09,9E+09,9E+09,9E+09,9E+09]];
    CONST robtarget GR1ext_140:=[[592.535743435,55.991925044,41.022770861],[0,0.708264537,0.705947126,0],[0,0,0,0],[9E+09,9E+09,9E+09,9E+09,9E+09,9E+09]];
    CONST robtarget GR1ext_150:=[[596.185533718,55.979963488,44.440209641],[0,0.708264537,0.705947126,0],[0,0,0,0],[9E+09,9E+09,9E+09,9E+09,9E+09,9E+09]];
    CONST robtarget GR1ext_160:=[[599.835324,55.968001931,47.857648421],[0,0.708264537,0.705947126,0],[0,0,0,0],[9E+09,9E+09,9E+09,9E+09,9E+09,9E+09]];
    CONST robtarget GR1ext_170:=[[603.485114283,55.956040375,51.275087201],[0,0.708264537,0.705947126,0],[0,0,0,0],[9E+09,9E+09,9E+09,9E+09,9E+09,9E+09]];
    CONST robtarget GR1ext_180:=[[607.134904565,55.944078818,54.692525981],[0,0.708264537,0.705947126,0],[0,0,0,0],[9E+09,9E+09,9E+09,9E+09,9E+09,9E+09]];
    CONST robtarget GR1ext_190:=[[610.784694848,55.932117262,58.109964761],[0,0.708264537,0.705947126,0],[0,0,0,0],[9E+09,9E+09,9E+09,9E+09,9E+09,9E+09]];
    CONST robtarget GR1ext_200:=[[614.43448513,55.920155705,61.527403541],[0,0.708264537,0.705947126,0],[0,0,0,0],[9E+09,9E+09,9E+09,9E+09,9E+09,9E+09]];
    CONST robtarget GR1ext_210:=[[616.292345439,53.470186412,63.274488908],[0,0.708264537,0.705947126,0],[0,0,0,0],[9E+09,9E+09,9E+09,9E+09,9E+09,9E+09]];
    CONST robtarget GR1ext_220:=[[616.275958892,48.470213264,63.274488908],[0,0.708264537,0.705947126,0],[0,0,0,0],[9E+09,9E+09,9E+09,9E+09,9E+09,9E+09]];
    CONST robtarget GR1ext_230:=[[616.259572344,43.470240115,63.274488908],[0,0.708264537,0.705947126,0],[0,0,0,0],[9E+09,9E+09,9E+09,9E+09,9E+09,9E+09]];
    CONST robtarget GR1ext_240:=[[616.243185797,38.470266967,63.274488908],[0,0.708264537,0.705947126,0],[0,0,0,0],[9E+09,9E+09,9E+09,9E+09,9E+09,9E+09]];
    CONST robtarget GR1ext_250:=[[616.088861922,33.476476759,63.145315305],[0,0.708264537,0.705947126,0],[0,0,0,0],[9E+09,9E+09,9E+09,9E+09,9E+09,9E+09]];
    CONST robtarget GR1ext_260:=[[615.330492926,28.59973895,62.450197945],[0,0.708264537,0.705947126,0],[0,0,0,0],[9E+09,9E+09,9E+09,9E+09,9E+09,9E+09]];
    CONST robtarget GR1ext_270:=[[613.424767974,24.367994415,60.678799427],[0,0.708264537,0.705947126,0],[0,0,0,0],[9E+09,9E+09,9E+09,9E+09,9E+09,9E+09]];
    CONST robtarget GR1ext_280:=[[610.416545236,21.610099194,57.870578252],[0,0.708264537,0.705947126,0],[0,0,0,0],[9E+09,9E+09,9E+09,9E+09,9E+09,9E+09]];
    CONST robtarget GR1ext_290:=[[606.818769979,20.941779344,54.503930163],[0,0.708264537,0.705947126,0],[0,0,0,0],[9E+09,9E+09,9E+09,9E+09,9E+09,9E+09]];
    CONST robtarget GR1ext_300:=[[603.233455192,21.755587667,51.144401026],[0,0.708264537,0.705947126,0],[0,0,0,0],[9E+09,9E+09,9E+09,9E+09,9E+09,9E+09]];
    CONST robtarget GR1ext_310:=[[600.135132475,24.319634922,48.235485488],[0,0.708264537,0.705947126,0],[0,0,0,0],[9E+09,9E+09,9E+09,9E+09,9E+09,9E+09]];
    CONST robtarget GR1ext_320:=[[597.859582104,28.19714231,46.092924458],[0,0.708264537,0.705947126,0],[0,0,0,0],[9E+09,9E+09,9E+09,9E+09,9E+09,9E+09]];
    CONST robtarget GR1ext_330:=[[595.340222249,27.385517304,43.736467026],[0,0.708264537,0.705947126,0],[0,0,0,0],[9E+09,9E+09,9E+09,9E+09,9E+09,9E+09]];
    CONST robtarget GR1ext_340:=[[592.466799569,24.294274468,41.055485895],[0,0.708264537,0.705947126,0],[0,0,0,0],[9E+09,9E+09,9E+09,9E+09,9E+09,9E+09]];
    CONST robtarget GR1ext_350:=[[589.593376888,21.203031632,38.374504763],[0,0.708264537,0.705947126,0],[0,0,0,0],[9E+09,9E+09,9E+09,9E+09,9E+09,9E+09]];
    CONST robtarget GR1ext_360:=[[586.719954207,18.111788796,35.693523632],[0,0.708264537,0.705947126,0],[0,0,0,0],[9E+09,9E+09,9E+09,9E+09,9E+09,9E+09]];
    CONST robtarget GR1ext_370:=[[583.846531526,15.02054596,33.0125425],[0,0.708264537,0.705947126,0],[0,0,0,0],[9E+09,9E+09,9E+09,9E+09,9E+09,9E+09]];
    CONST robtarget GR1ext_380:=[[583.329358513,18.526598468,32.517539888],[0,0.708264537,0.705947126,0],[0,0,0,0],[9E+09,9E+09,9E+09,9E+09,9E+09,9E+09]];
    CONST robtarget GR1ext_390:=[[583.34574506,23.526571616,32.517539888],[0,0.708264537,0.705947126,0],[0,0,0,0],[9E+09,9E+09,9E+09,9E+09,9E+09,9E+09]];
    CONST robtarget HR1int_10:=[[606.161563815,32.535473676,53.852992368],[0,0.708264537,0.705947126,0],[0,-2,1,0],[9E+09,9E+09,9E+09,9E+09,9E+09,9E+09]];
    CONST robtarget HR1int_20:=[[609.351250325,34.499250053,56.83356009],[0,0.708264537,0.705947126,0],[0,0,0,0],[9E+09,9E+09,9E+09,9E+09,9E+09,9E+09]];
    CONST robtarget HR1int_30:=[[610.184457476,39.301107282,57.598980319],[0,0.708264537,0.705947126,0],[0,0,0,0],[9E+09,9E+09,9E+09,9E+09,9E+09,9E+09]];
    CONST robtarget HR1int_40:=[[610.219667224,44.300737892,57.616606065],[0,0.708264537,0.705947126,0],[0,0,0,0],[9E+09,9E+09,9E+09,9E+09,9E+09,9E+09]];
    CONST robtarget HR1int_50:=[[606.864199129,44.713139076,54.47352068],[0,0.708264537,0.705947126,0],[0,0,0,0],[9E+09,9E+09,9E+09,9E+09,9E+09,9E+09]];
    CONST robtarget HR1int_60:=[[603.214408847,44.725100633,51.0560819],[0,0.708264537,0.705947126,0],[0,0,0,0],[9E+09,9E+09,9E+09,9E+09,9E+09,9E+09]];
    CONST robtarget HR1int_70:=[[601.375237192,42.239486087,49.341640851],[0,0.708264537,0.705947126,0],[0,0,0,0],[9E+09,9E+09,9E+09,9E+09,9E+09,9E+09]];
    CONST robtarget HR1int_80:=[[601.604429377,37.258473769,49.571524993],[0,0.708264537,0.705947126,0],[0,0,0,0],[9E+09,9E+09,9E+09,9E+09,9E+09,9E+09]];
    CONST robtarget HR1int_90:=[[603.624326087,33.284255804,51.475007026],[0,0.708264537,0.705947126,0],[0,0,0,0],[9E+09,9E+09,9E+09,9E+09,9E+09,9E+09]];
    CONST robtarget IJ_10:=[[585.52229899,-43.357580288,34.76075335],[0,0.708264537,0.705947126,0],[0,0,0,0],[9E+09,9E+09,9E+09,9E+09,9E+09,9E+09]];
    CONST robtarget IJ_20:=[[583.627836125,-39.120604428,32.973912268],[0,0.708264537,0.705947126,0],[0,0,0,0],[9E+09,9E+09,9E+09,9E+09,9E+09,9E+09]];
    CONST robtarget IJ_30:=[[582.787836544,-34.271663927,32.172517133],[0,0.708264537,0.705947126,0],[0,0,0,0],[9E+09,9E+09,9E+09,9E+09,9E+09,9E+09]];
    CONST robtarget IJ_40:=[[582.67925834,-29.278602038,32.055530303],[0,0.708264537,0.705947126,0],[0,0,0,0],[9E+09,9E+09,9E+09,9E+09,9E+09,9E+09]];
    CONST robtarget IJ_50:=[[582.911950123,-24.289526589,32.258096466],[0,0.708264537,0.705947126,0],[0,0,0,0],[9E+09,9E+09,9E+09,9E+09,9E+09,9E+09]];
    CONST robtarget IJ_60:=[[584.306232066,-20.671139151,33.552498583],[0,0.708264537,0.705947126,0],[0,0,0,0],[9E+09,9E+09,9E+09,9E+09,9E+09,9E+09]];
    CONST robtarget IJ_70:=[[587.956022348,-20.683100707,36.969937363],[0,0.708264537,0.705947126,0],[0,0,0,0],[9E+09,9E+09,9E+09,9E+09,9E+09,9E+09]];
    CONST robtarget IJ_80:=[[589.66719204,-22.823366065,38.578721773],[0,0.708264537,0.705947126,0],[0,0,0,0],[9E+09,9E+09,9E+09,9E+09,9E+09,9E+09]];
    CONST robtarget IJ_90:=[[588.881952058,-27.67788186,37.858376155],[0,0.708264537,0.705947126,0],[0,0,0,0],[9E+09,9E+09,9E+09,9E+09,9E+09,9E+09]];
    CONST robtarget IJ_100:=[[589.347693046,-32.599359005,38.309564952],[0,0.708264537,0.705947126,0],[0,0,0,0],[9E+09,9E+09,9E+09,9E+09,9E+09,9E+09]];
    CONST robtarget IJ_110:=[[592.043554353,-35.675201601,40.843214991],[0,0.708264537,0.705947126,0],[0,0,0,0],[9E+09,9E+09,9E+09,9E+09,9E+09,9E+09]];
    CONST robtarget IJ_120:=[[595.669297942,-36.088464878,44.239369626],[0,0.708264537,0.705947126,0],[0,0,0,0],[9E+09,9E+09,9E+09,9E+09,9E+09,9E+09]];
    CONST robtarget IJ_130:=[[599.31903803,-36.109402603,47.656788952],[0,0.708264537,0.705947126,0],[0,0,0,0],[9E+09,9E+09,9E+09,9E+09,9E+09,9E+09]];
    CONST robtarget IJ_140:=[[602.968828313,-36.121364159,51.074227732],[0,0.708264537,0.705947126,0],[0,0,0,0],[9E+09,9E+09,9E+09,9E+09,9E+09,9E+09]];
    CONST robtarget IJ_150:=[[606.618618595,-36.133325716,54.491666512],[0,0.708264537,0.705947126,0],[0,0,0,0],[9E+09,9E+09,9E+09,9E+09,9E+09,9E+09]];
    CONST robtarget IJ_160:=[[610.036924278,-35.825976296,57.691379847],[0,0.708264537,0.705947126,0],[0,0,0,0],[9E+09,9E+09,9E+09,9E+09,9E+09,9E+09]];
    CONST robtarget IJ_170:=[[610.053310826,-30.826003148,57.691379847],[0,0.708264537,0.705947126,0],[0,0,0,0],[9E+09,9E+09,9E+09,9E+09,9E+09,9E+09]];
    CONST robtarget IJ_180:=[[610.09507317,-25.861033497,57.715247339],[0,0.708264537,0.705947126,0],[0,0,0,0],[9E+09,9E+09,9E+09,9E+09,9E+09,9E+09]];
    CONST robtarget IJ_190:=[[613.744863453,-25.872995054,61.132686119],[0,0.708264537,0.705947126,0],[0,0,0,0],[9E+09,9E+09,9E+09,9E+09,9E+09,9E+09]];
    CONST robtarget IJ_200:=[[616.026170665,-27.746844275,63.274488908],[0,0.708264537,0.705947126,0],[0,0,0,0],[9E+09,9E+09,9E+09,9E+09,9E+09,9E+09]];
    CONST robtarget IJ_210:=[[616.009784118,-32.746817423,63.274488908],[0,0.708264537,0.705947126,0],[0,0,0,0],[9E+09,9E+09,9E+09,9E+09,9E+09,9E+09]];
    CONST robtarget IJ_220:=[[615.99339757,-37.746790571,63.274488908],[0,0.708264537,0.705947126,0],[0,0,0,0],[9E+09,9E+09,9E+09,9E+09,9E+09,9E+09]];
    CONST robtarget IJ_230:=[[615.977011023,-42.746763719,63.274488908],[0,0.708264537,0.705947126,0],[0,0,0,0],[9E+09,9E+09,9E+09,9E+09,9E+09,9E+09]];
    CONST robtarget IJ_240:=[[615.758583991,-47.468041245,63.084457456],[0,0.708264537,0.705947126,0],[0,0,0,0],[9E+09,9E+09,9E+09,9E+09,9E+09,9E+09]];
    CONST robtarget IJ_250:=[[612.108793709,-47.456079688,59.667018676],[0,0.708264537,0.705947126,0],[0,0,0,0],[9E+09,9E+09,9E+09,9E+09,9E+09,9E+09]];
    CONST robtarget IJ_260:=[[608.459003427,-47.444118132,56.249579896],[0,0.708264537,0.705947126,0],[0,0,0,0],[9E+09,9E+09,9E+09,9E+09,9E+09,9E+09]];
    CONST robtarget IJ_270:=[[604.809213144,-47.432156575,52.832141116],[0,0.708264537,0.705947126,0],[0,0,0,0],[9E+09,9E+09,9E+09,9E+09,9E+09,9E+09]];
    CONST robtarget IJ_280:=[[601.159422862,-47.420195019,49.414702336],[0,0.708264537,0.705947126,0],[0,0,0,0],[9E+09,9E+09,9E+09,9E+09,9E+09,9E+09]];
    CONST robtarget IJ_290:=[[597.509632579,-47.408233462,45.997263556],[0,0.708264537,0.705947126,0],[0,0,0,0],[9E+09,9E+09,9E+09,9E+09,9E+09,9E+09]];
    CONST robtarget IJ_300:=[[593.859842297,-47.396271906,42.579824776],[0,0.708264537,0.705947126,0],[0,0,0,0],[9E+09,9E+09,9E+09,9E+09,9E+09,9E+09]];
    CONST robtarget IJ_310:=[[590.231476494,-47.007993884,39.181291559],[0,0.708264537,0.705947126,0],[0,0,0,0],[9E+09,9E+09,9E+09,9E+09,9E+09,9E+09]];
    CONST robtarget IJ_320:=[[586.904625047,-45.038639465,36.060223],[0,0.708264537,0.705947126,0],[0,0,0,0],[9E+09,9E+09,9E+09,9E+09,9E+09,9E+09]];
    CONST robtarget JR2ext_10:=[[582.99355169,-83.937029685,32.517539888],[0,0.708264537,0.705947126,0],[0,0,0,0],[9E+09,9E+09,9E+09,9E+09,9E+09,9E+09]];
    CONST robtarget JR2ext_20:=[[585.91322472,-80.928310384,35.242079768],[0,0.708264537,0.705947126,0],[0,0,0,0],[9E+09,9E+09,9E+09,9E+09,9E+09,9E+09]];
    CONST robtarget JR2ext_30:=[[588.83289775,-77.919591082,37.966619649],[0,0.708264537,0.705947126,0],[0,0,0,0],[9E+09,9E+09,9E+09,9E+09,9E+09,9E+09]];
    CONST robtarget JR2ext_40:=[[591.75257078,-74.910871781,40.69115953],[0,0.708264537,0.705947126,0],[0,0,0,0],[9E+09,9E+09,9E+09,9E+09,9E+09,9E+09]];
    CONST robtarget JR2ext_50:=[[594.672243811,-71.902152479,43.41569941],[0,0.708264537,0.705947126,0],[0,0,0,0],[9E+09,9E+09,9E+09,9E+09,9E+09,9E+09]];
    CONST robtarget JR2ext_60:=[[594.964032565,-67.383789262,43.675044196],[0,0.708264537,0.705947126,0],[0,0,0,0],[9E+09,9E+09,9E+09,9E+09,9E+09,9E+09]];
    CONST robtarget JR2ext_70:=[[591.314242282,-67.371827705,40.257605417],[0,0.708264537,0.705947126,0],[0,0,0,0],[9E+09,9E+09,9E+09,9E+09,9E+09,9E+09]];
    CONST robtarget JR2ext_80:=[[587.664452,-67.359866149,36.840166637],[0,0.708264537,0.705947126,0],[0,0,0,0],[9E+09,9E+09,9E+09,9E+09,9E+09,9E+09]];
    CONST robtarget JR2ext_90:=[[584.014661718,-67.347904592,33.422727857],[0,0.708264537,0.705947126,0],[0,0,0,0],[9E+09,9E+09,9E+09,9E+09,9E+09,9E+09]];
    CONST robtarget JR2ext_100:=[[583.059976252,-63.66912207,32.517539888],[0,0.708264537,0.705947126,0],[0,0,0,0],[9E+09,9E+09,9E+09,9E+09,9E+09,9E+09]];
    CONST robtarget JR2ext_110:=[[583.076362799,-58.669148922,32.517539888],[0,0.708264537,0.705947126,0],[0,0,0,0],[9E+09,9E+09,9E+09,9E+09,9E+09,9E+09]];
    CONST robtarget JR2ext_120:=[[584.868660701,-56.118876495,34.187893301],[0,0.708264537,0.705947126,0],[0,0,0,0],[9E+09,9E+09,9E+09,9E+09,9E+09,9E+09]];
    CONST robtarget JR2ext_130:=[[588.518450983,-56.130838051,37.605332081],[0,0.708264537,0.705947126,0],[0,0,0,0],[9E+09,9E+09,9E+09,9E+09,9E+09,9E+09]];
    CONST robtarget JR2ext_140:=[[592.168241265,-56.142799608,41.022770861],[0,0.708264537,0.705947126,0],[0,0,0,0],[9E+09,9E+09,9E+09,9E+09,9E+09,9E+09]];
    CONST robtarget JR2ext_150:=[[595.818031548,-56.154761165,44.440209641],[0,0.708264537,0.705947126,0],[0,0,0,0],[9E+09,9E+09,9E+09,9E+09,9E+09,9E+09]];
    CONST robtarget JR2ext_160:=[[599.46782183,-56.166722721,47.857648421],[0,0.708264537,0.705947126,0],[0,0,0,0],[9E+09,9E+09,9E+09,9E+09,9E+09,9E+09]];
    CONST robtarget JR2ext_170:=[[603.117612113,-56.178684278,51.275087201],[0,0.708264537,0.705947126,0],[0,0,0,0],[9E+09,9E+09,9E+09,9E+09,9E+09,9E+09]];
    CONST robtarget JR2ext_180:=[[606.767402395,-56.190645834,54.692525981],[0,0.708264537,0.705947126,0],[0,0,0,0],[9E+09,9E+09,9E+09,9E+09,9E+09,9E+09]];
    CONST robtarget JR2ext_190:=[[610.417192678,-56.202607391,58.109964761],[0,0.708264537,0.705947126,0],[0,0,0,0],[9E+09,9E+09,9E+09,9E+09,9E+09,9E+09]];
    CONST robtarget JR2ext_200:=[[614.06698296,-56.214568947,61.527403541],[0,0.708264537,0.705947126,0],[0,0,0,0],[9E+09,9E+09,9E+09,9E+09,9E+09,9E+09]];
    CONST robtarget JR2ext_210:=[[615.924843269,-58.664538241,63.274488908],[0,0.708264537,0.705947126,0],[0,0,0,0],[9E+09,9E+09,9E+09,9E+09,9E+09,9E+09]];
    CONST robtarget JR2ext_220:=[[615.908456722,-63.664511389,63.274488908],[0,0.708264537,0.705947126,0],[0,0,0,0],[9E+09,9E+09,9E+09,9E+09,9E+09,9E+09]];
    CONST robtarget JR2ext_230:=[[615.892070175,-68.664484537,63.274488908],[0,0.708264537,0.705947126,0],[0,0,0,0],[9E+09,9E+09,9E+09,9E+09,9E+09,9E+09]];
    CONST robtarget JR2ext_240:=[[615.875683627,-73.664457685,63.274488908],[0,0.708264537,0.705947126,0],[0,0,0,0],[9E+09,9E+09,9E+09,9E+09,9E+09,9E+09]];
    CONST robtarget JR2ext_250:=[[615.721359752,-78.658247892,63.145315305],[0,0.708264537,0.705947126,0],[0,0,0,0],[9E+09,9E+09,9E+09,9E+09,9E+09,9E+09]];
    CONST robtarget JR2ext_260:=[[614.962990757,-83.534985701,62.450197945],[0,0.708264537,0.705947126,0],[0,0,0,0],[9E+09,9E+09,9E+09,9E+09,9E+09,9E+09]];
    CONST robtarget JR2ext_270:=[[613.057265805,-87.766730236,60.678799427],[0,0.708264537,0.705947126,0],[0,0,0,0],[9E+09,9E+09,9E+09,9E+09,9E+09,9E+09]];
    CONST robtarget JR2ext_280:=[[610.049043066,-90.524625457,57.870578252],[0,0.708264537,0.705947126,0],[0,0,0,0],[9E+09,9E+09,9E+09,9E+09,9E+09,9E+09]];
    CONST robtarget JR2ext_290:=[[606.45126781,-91.192945307,54.503930163],[0,0.708264537,0.705947126,0],[0,0,0,0],[9E+09,9E+09,9E+09,9E+09,9E+09,9E+09]];
    CONST robtarget JR2ext_300:=[[602.865953023,-90.379136984,51.144401026],[0,0.708264537,0.705947126,0],[0,0,0,0],[9E+09,9E+09,9E+09,9E+09,9E+09,9E+09]];
    CONST robtarget JR2ext_310:=[[599.767630305,-87.81508973,48.235485488],[0,0.708264537,0.705947126,0],[0,0,0,0],[9E+09,9E+09,9E+09,9E+09,9E+09,9E+09]];
    CONST robtarget JR2ext_320:=[[597.492079934,-83.937582341,46.092924458],[0,0.708264537,0.705947126,0],[0,0,0,0],[9E+09,9E+09,9E+09,9E+09,9E+09,9E+09]];
    CONST robtarget JR2ext_330:=[[594.97272008,-84.749207349,43.736467026],[0,0.708264537,0.705947126,0],[0,0,0,0],[9E+09,9E+09,9E+09,9E+09,9E+09,9E+09]];
    CONST robtarget JR2ext_340:=[[592.099297399,-87.840450184,41.055485895],[0,0.708264537,0.705947126,0],[0,0,0,0],[9E+09,9E+09,9E+09,9E+09,9E+09,9E+09]];
    CONST robtarget JR2ext_350:=[[589.225874718,-90.931693019,38.374504763],[0,0.708264537,0.705947126,0],[0,0,0,0],[9E+09,9E+09,9E+09,9E+09,9E+09,9E+09]];
    CONST robtarget JR2ext_360:=[[586.352452037,-94.022935855,35.693523632],[0,0.708264537,0.705947126,0],[0,0,0,0],[9E+09,9E+09,9E+09,9E+09,9E+09,9E+09]];
    CONST robtarget JR2ext_370:=[[583.479029356,-97.114178691,33.0125425],[0,0.708264537,0.705947126,0],[0,0,0,0],[9E+09,9E+09,9E+09,9E+09,9E+09,9E+09]];
    CONST robtarget JR2ext_380:=[[582.961856343,-93.608126183,32.517539888],[0,0.708264537,0.705947126,0],[0,0,0,0],[9E+09,9E+09,9E+09,9E+09,9E+09,9E+09]];
    CONST robtarget JR2ext_390:=[[582.978242891,-88.608153035,32.517539888],[0,0.708264537,0.705947126,0],[0,0,0,0],[9E+09,9E+09,9E+09,9E+09,9E+09,9E+09]];
    CONST robtarget KR2int_10:=[[605.794061646,-79.599250976,53.852992368],[0,0.708264537,0.705947126,0],[0,0,0,0],[9E+09,9E+09,9E+09,9E+09,9E+09,9E+09]];
    CONST robtarget KR2int_20:=[[608.983748155,-77.635474598,56.83356009],[0,0.708264537,0.705947126,0],[0,0,0,0],[9E+09,9E+09,9E+09,9E+09,9E+09,9E+09]];
    CONST robtarget KR2int_30:=[[609.816955306,-72.833617369,57.598980319],[0,0.708264537,0.705947126,0],[0,0,0,0],[9E+09,9E+09,9E+09,9E+09,9E+09,9E+09]];
    CONST robtarget KR2int_40:=[[609.852165054,-67.833986759,57.616606065],[0,0.708264537,0.705947126,0],[0,0,0,0],[9E+09,9E+09,9E+09,9E+09,9E+09,9E+09]];
    CONST robtarget KR2int_50:=[[606.496696959,-67.421585575,54.47352068],[0,0.708264537,0.705947126,0],[0,0,0,0],[9E+09,9E+09,9E+09,9E+09,9E+09,9E+09]];
    CONST robtarget KR2int_60:=[[602.846906677,-67.409624019,51.0560819],[0,0.708264537,0.705947126,0],[0,0,0,0],[9E+09,9E+09,9E+09,9E+09,9E+09,9E+09]];
    CONST robtarget KR2int_70:=[[601.007735022,-69.895238565,49.341640851],[0,0.708264537,0.705947126,0],[0,0,0,0],[9E+09,9E+09,9E+09,9E+09,9E+09,9E+09]];
    CONST robtarget KR2int_80:=[[601.236927207,-74.876250882,49.571524993],[0,0.708264537,0.705947126,0],[0,0,0,0],[9E+09,9E+09,9E+09,9E+09,9E+09,9E+09]];
    CONST robtarget KR2int_90:=[[603.256823917,-78.850468847,51.475007026],[0,0.708264537,0.705947126,0],[0,0,0,0],[9E+09,9E+09,9E+09,9E+09,9E+09,9E+09]];
    CONST robtarget RA:=[[728.800506081,-9.888557912,167.443],[0,0.708264537,0.705947126,0],[0,0,0,0],[9E+09,9E+09,9E+09,9E+09,9E+09,9E+09]];
    CONST robtarget RB:=[[728.898825365,20.111280976,167.443],[0,0.708264537,0.705947126,0],[0,0,0,0],[9E+09,9E+09,9E+09,9E+09,9E+09,9E+09]];
    CONST robtarget RC:=[[683.024139516,54.761812606,124.384],[0,0.708264537,0.705947126,0],[0,0,0,0],[9E+09,9E+09,9E+09,9E+09,9E+09,9E+09]];
    CONST robtarget RD:=[[636.924319307,20.412711515,81.324],[0,0.708264537,0.705947126,0],[-1,0,0,0],[9E+09,9E+09,9E+09,9E+09,9E+09,9E+09]];
    CONST robtarget RE:=[[636.826000023,-9.587127373,81.324],[0,0.708264537,0.705947126,0],[-1,0,0,0],[9E+09,9E+09,9E+09,9E+09,9E+09,9E+09]];
    CONST robtarget RF:=[[682.699685877,-44.237655725,124.384],[0,0.708264537,0.705947126,0],[-1,0,0,0],[9E+09,9E+09,9E+09,9E+09,9E+09,9E+09]];
    CONST robtarget RH:=[[682.925820231,24.761973718,124.384],[0,0.708264537,0.705947126,0],[-1,0,0,0],[9E+09,9E+09,9E+09,9E+09,9E+09,9E+09]];
    CONST robtarget RI:=[[656.869052289,5.347265546,100.046],[0,0.708264537,0.705947126,0],[-1,0,0,0],[9E+09,9E+09,9E+09,9E+09,9E+09,9E+09]];
    CONST robtarget RJ:=[[682.798005162,-14.237816837,124.384],[0,0.708264537,0.705947126,0],[-1,0,0,0],[9E+09,9E+09,9E+09,9E+09,9E+09,9E+09]];
    CONST robtarget RG:=[[708.854773104,5.176891335,148.722],[0,0.708264537,0.705947126,0],[-1,0,0,0],[9E+09,9E+09,9E+09,9E+09,9E+09,9E+09]];
    CONST robtarget PreworkDR:=[[616.983555205,55.912254217,108.545],[0,0.708264537,0.705947126,0],[0,0,0,0],[9E+09,9E+09,9E+09,9E+09,9E+09,9E+09]];
    CONST robtarget PreworkJR:=[[616.644733842,-47.47119057,108.545],[0,0.708264537,0.705947126,0],[0,0,0,0],[9E+09,9E+09,9E+09,9E+09,9E+09,9E+09]];
    CONST robtarget Home_2:=[[655.001518787,0.000357316,662],[0.707105832,0.001158705,0.707105832,-0.001158705],[0,-2,1,0],[9E+09,9E+09,9E+09,9E+09,9E+09,9E+09]];
    PERS tooldata MyNewTool:=[TRUE,[[40,0,140],[1,0,0,0]],[0.2,[0,0,1],[1,0,0,0],0,0,0]];
    PERS tooldata MaRCK:=[TRUE,[[40,0,140],[1,0,0,0]],[1,[0,0,60],[1,0,0,0],0,0,0]];
    PERS tooldata Marcket:=[TRUE,[[40,0,140],[1,0,0,0]],[1,[0,0,1],[1,0,0,0],0,0,0]];
!***********************************************************
    !
    ! M?dulo:  Module1
    !
    ! Descripción:
    !   <Introduzca la descripción aquí>
    !
    ! Autor: drica
    !
    ! Versión: 1.0
    !
    !***********************************************************
    
    
    !***********************************************************
    !
    ! Procedimiento Main
    !
    !   Este es el punto de entrada de su programa
    !
    !***********************************************************
    PROC main()
        !Add your code here
        WaitDI DI_02,1;
        SetDO DO_01,1;
        !HomeToPrework;
        Renault;
        ToPreworkDR;
        Dint;
        ToPreworkDR;
        Dext;
        ToPreworkDR;
        R1int;
        ToPreworkDR;
        R1ext;
        ToPreworkDR;
        ToPreworkJR;
        J;
        ToPreworkJR;
        R2int;
        ToPreworkJR;
        R2ext;
        ToPreworkJR;
        WaitDI DI_02,1;
        SetDO DO_01,0;
        ToHome;
        
        
        
        
        
        
        
        
        
        
        
        
        
        
        
        
        
    ENDPROC
    PROC HomeToPrework()
        MoveL PreworkLogo,v1000,z100,Marcket\WObj:=wobj0;
    ENDPROC
    PROC Dext()
        MoveL EDext_10,v500,z100,Marcket\WObj:=wobj0;
        MoveL EDext_20,v500,z100,Marcket\WObj:=wobj0;
        MoveL EDext_30,v500,z100,Marcket\WObj:=wobj0;
        MoveL EDext_40,v500,z100,Marcket\WObj:=wobj0;
        MoveL EDext_50,v500,z100,Marcket\WObj:=wobj0;
        MoveL EDext_60,v500,z100,Marcket\WObj:=wobj0;
        MoveL EDext_70,v500,z100,Marcket\WObj:=wobj0;
        MoveL EDext_80,v500,z100,Marcket\WObj:=wobj0;
        MoveL EDext_90,v500,z100,Marcket\WObj:=wobj0;
        MoveL EDext_100,v500,z100,Marcket\WObj:=wobj0;
        MoveL EDext_110,v500,z100,Marcket\WObj:=wobj0;
        MoveL EDext_120,v500,z100,Marcket\WObj:=wobj0;
        MoveL EDext_130,v500,z100,Marcket\WObj:=wobj0;
        MoveL EDext_140,v500,z100,Marcket\WObj:=wobj0;
        MoveL EDext_150,v500,z100,Marcket\WObj:=wobj0;
        MoveL EDext_160,v500,z100,Marcket\WObj:=wobj0;
        MoveL EDext_170,v500,z100,Marcket\WObj:=wobj0;
        MoveL EDext_180,v500,z100,Marcket\WObj:=wobj0;
        MoveL EDext_190,v500,z100,Marcket\WObj:=wobj0;
        MoveL EDext_200,v500,z100,Marcket\WObj:=wobj0;
        MoveL EDext_210,v500,z100,Marcket\WObj:=wobj0;
        MoveL EDext_220,v500,z100,Marcket\WObj:=wobj0;
        MoveL EDext_230,v500,z100,Marcket\WObj:=wobj0;
        MoveL EDext_240,v500,z100,Marcket\WObj:=wobj0;
        MoveL EDext_250,v500,z100,Marcket\WObj:=wobj0;
        MoveL EDext_260,v500,z100,Marcket\WObj:=wobj0;
        MoveL EDext_270,v500,z100,Marcket\WObj:=wobj0;
        MoveL EDext_280,v500,z100,Marcket\WObj:=wobj0;
        MoveL EDext_290,v500,z100,Marcket\WObj:=wobj0;
        MoveL EDext_300,v500,z100,Marcket\WObj:=wobj0;
        MoveL EDext_310,v500,z100,Marcket\WObj:=wobj0;
        MoveL EDext_10,v500,z100,Marcket\WObj:=wobj0;
    ENDPROC
    PROC Dint()
        MoveL FDint_10,v500,z100,Marcket\WObj:=wobj0;
        MoveL FDint_20,v500,z100,Marcket\WObj:=wobj0;
        MoveL FDint_30,v500,z100,Marcket\WObj:=wobj0;
        MoveL FDint_40,v500,z100,Marcket\WObj:=wobj0;
        MoveL FDint_50,v500,z100,Marcket\WObj:=wobj0;
        MoveL FDint_60,v500,z100,Marcket\WObj:=wobj0;
        MoveL FDint_70,v500,z100,Marcket\WObj:=wobj0;
        MoveL FDint_80,v500,z100,Marcket\WObj:=wobj0;
        MoveL FDint_90,v500,z100,Marcket\WObj:=wobj0;
        MoveL FDint_100,v500,z100,Marcket\WObj:=wobj0;
        MoveL FDint_110,v500,z100,Marcket\WObj:=wobj0;
        MoveL FDint_120,v500,z100,Marcket\WObj:=wobj0;
        MoveL FDint_130,v500,z100,Marcket\WObj:=wobj0;
        MoveL FDint_140,v500,z100,Marcket\WObj:=wobj0;
        MoveL FDint_150,v500,z100,Marcket\WObj:=wobj0;
        MoveL FDint_160,v500,z100,Marcket\WObj:=wobj0;
        MoveL FDint_170,v500,z100,Marcket\WObj:=wobj0;
        MoveL FDint_10,v500,z100,Marcket\WObj:=wobj0;
    ENDPROC
    PROC R1ext()
        MoveL GR1ext_10,v500,z100,Marcket\WObj:=wobj0;
        MoveL GR1ext_20,v500,z100,Marcket\WObj:=wobj0;
        MoveL GR1ext_30,v500,z100,Marcket\WObj:=wobj0;
        MoveL GR1ext_40,v500,z100,Marcket\WObj:=wobj0;
        MoveL GR1ext_50,v500,z100,Marcket\WObj:=wobj0;
        MoveL GR1ext_60,v500,z100,Marcket\WObj:=wobj0;
        MoveL GR1ext_70,v500,z100,Marcket\WObj:=wobj0;
        MoveL GR1ext_80,v500,z100,Marcket\WObj:=wobj0;
        MoveL GR1ext_90,v500,z100,Marcket\WObj:=wobj0;
        MoveL GR1ext_100,v500,z100,Marcket\WObj:=wobj0;
        MoveL GR1ext_110,v500,z100,Marcket\WObj:=wobj0;
        MoveL GR1ext_120,v500,z100,Marcket\WObj:=wobj0;
        MoveL GR1ext_130,v500,z100,Marcket\WObj:=wobj0;
        MoveL GR1ext_140,v500,z100,Marcket\WObj:=wobj0;
        MoveL GR1ext_150,v500,z100,Marcket\WObj:=wobj0;
        MoveL GR1ext_160,v500,z100,Marcket\WObj:=wobj0;
        MoveL GR1ext_170,v500,z100,Marcket\WObj:=wobj0;
        MoveL GR1ext_180,v500,z100,Marcket\WObj:=wobj0;
        MoveL GR1ext_190,v500,z100,Marcket\WObj:=wobj0;
        MoveL GR1ext_200,v500,z100,Marcket\WObj:=wobj0;
        MoveL GR1ext_210,v500,z100,Marcket\WObj:=wobj0;
        MoveL GR1ext_220,v500,z100,Marcket\WObj:=wobj0;
        MoveL GR1ext_230,v500,z100,Marcket\WObj:=wobj0;
        MoveL GR1ext_240,v500,z100,Marcket\WObj:=wobj0;
        MoveL GR1ext_250,v500,z100,Marcket\WObj:=wobj0;
        MoveL GR1ext_260,v500,z100,Marcket\WObj:=wobj0;
        MoveL GR1ext_270,v500,z100,Marcket\WObj:=wobj0;
        MoveL GR1ext_280,v500,z100,Marcket\WObj:=wobj0;
        MoveL GR1ext_290,v500,z100,Marcket\WObj:=wobj0;
        MoveL GR1ext_300,v500,z100,Marcket\WObj:=wobj0;
        MoveL GR1ext_310,v500,z100,Marcket\WObj:=wobj0;
        MoveL GR1ext_320,v500,z100,Marcket\WObj:=wobj0;
        MoveL GR1ext_330,v500,z100,Marcket\WObj:=wobj0;
        MoveL GR1ext_340,v500,z100,Marcket\WObj:=wobj0;
        MoveL GR1ext_350,v500,z100,Marcket\WObj:=wobj0;
        MoveL GR1ext_360,v500,z100,Marcket\WObj:=wobj0;
        MoveL GR1ext_370,v500,z100,Marcket\WObj:=wobj0;
        MoveL GR1ext_380,v500,z100,Marcket\WObj:=wobj0;
        MoveL GR1ext_390,v500,z100,Marcket\WObj:=wobj0;
    ENDPROC
    PROC R1int()
        MoveL HR1int_10,v500,z100,Marcket\WObj:=wobj0;
        MoveL HR1int_20,v500,z100,Marcket\WObj:=wobj0;
        MoveL HR1int_30,v500,z100,Marcket\WObj:=wobj0;
        MoveL HR1int_40,v500,z100,Marcket\WObj:=wobj0;
        MoveL HR1int_50,v500,z100,Marcket\WObj:=wobj0;
        MoveL HR1int_60,v500,z100,Marcket\WObj:=wobj0;
        MoveL HR1int_70,v500,z100,Marcket\WObj:=wobj0;
        MoveL HR1int_80,v500,z100,Marcket\WObj:=wobj0;
        MoveL HR1int_90,v500,z100,Marcket\WObj:=wobj0;
        MoveL HR1int_10,v500,z100,Marcket\WObj:=wobj0;
    ENDPROC
    PROC J()
        MoveL IJ_10,v500,z100,Marcket\WObj:=wobj0;
        MoveL IJ_20,v500,z100,Marcket\WObj:=wobj0;
        MoveL IJ_30,v500,z100,Marcket\WObj:=wobj0;
        MoveL IJ_40,v500,z100,Marcket\WObj:=wobj0;
        MoveL IJ_50,v500,z100,Marcket\WObj:=wobj0;
        MoveL IJ_60,v500,z100,Marcket\WObj:=wobj0;
        MoveL IJ_70,v500,z100,Marcket\WObj:=wobj0;
        MoveL IJ_80,v500,z100,Marcket\WObj:=wobj0;
        MoveL IJ_90,v500,z100,Marcket\WObj:=wobj0;
        MoveL IJ_100,v500,z100,Marcket\WObj:=wobj0;
        MoveL IJ_110,v500,z100,Marcket\WObj:=wobj0;
        MoveL IJ_120,v500,z100,Marcket\WObj:=wobj0;
        MoveL IJ_130,v500,z100,Marcket\WObj:=wobj0;
        MoveL IJ_140,v500,z100,Marcket\WObj:=wobj0;
        MoveL IJ_150,v500,z100,Marcket\WObj:=wobj0;
        MoveL IJ_160,v500,z100,Marcket\WObj:=wobj0;
        MoveL IJ_170,v500,z100,Marcket\WObj:=wobj0;
        MoveL IJ_180,v500,z100,Marcket\WObj:=wobj0;
        MoveL IJ_190,v500,z100,Marcket\WObj:=wobj0;
        MoveL IJ_200,v500,z100,Marcket\WObj:=wobj0;
        MoveL IJ_210,v500,z100,Marcket\WObj:=wobj0;
        MoveL IJ_220,v500,z100,Marcket\WObj:=wobj0;
        MoveL IJ_230,v500,z100,Marcket\WObj:=wobj0;
        MoveL IJ_240,v500,z100,Marcket\WObj:=wobj0;
        MoveL IJ_250,v500,z100,Marcket\WObj:=wobj0;
        MoveL IJ_260,v500,z100,Marcket\WObj:=wobj0;
        MoveL IJ_270,v500,z100,Marcket\WObj:=wobj0;
        MoveL IJ_280,v500,z100,Marcket\WObj:=wobj0;
        MoveL IJ_290,v500,z100,Marcket\WObj:=wobj0;
        MoveL IJ_300,v500,z100,Marcket\WObj:=wobj0;
        MoveL IJ_310,v500,z100,Marcket\WObj:=wobj0;
        MoveL IJ_320,v500,z100,Marcket\WObj:=wobj0;
    ENDPROC
    PROC R2ext()
        MoveL JR2ext_10,v500,z100,Marcket\WObj:=wobj0;
        MoveL JR2ext_20,v500,z100,Marcket\WObj:=wobj0;
        MoveL JR2ext_30,v500,z100,Marcket\WObj:=wobj0;
        MoveL JR2ext_40,v500,z100,Marcket\WObj:=wobj0;
        MoveL JR2ext_50,v500,z100,Marcket\WObj:=wobj0;
        MoveL JR2ext_60,v500,z100,Marcket\WObj:=wobj0;
        MoveL JR2ext_70,v500,z100,Marcket\WObj:=wobj0;
        MoveL JR2ext_80,v500,z100,Marcket\WObj:=wobj0;
        MoveL JR2ext_90,v500,z100,Marcket\WObj:=wobj0;
        MoveL JR2ext_100,v500,z100,Marcket\WObj:=wobj0;
        MoveL JR2ext_110,v500,z100,Marcket\WObj:=wobj0;
        MoveL JR2ext_120,v500,z100,Marcket\WObj:=wobj0;
        MoveL JR2ext_130,v500,z100,Marcket\WObj:=wobj0;
        MoveL JR2ext_140,v500,z100,Marcket\WObj:=wobj0;
        MoveL JR2ext_150,v500,z100,Marcket\WObj:=wobj0;
        MoveL JR2ext_160,v500,z100,Marcket\WObj:=wobj0;
        MoveL JR2ext_170,v500,z100,Marcket\WObj:=wobj0;
        MoveL JR2ext_180,v500,z100,Marcket\WObj:=wobj0;
        MoveL JR2ext_190,v500,z100,Marcket\WObj:=wobj0;
        MoveL JR2ext_200,v500,z100,Marcket\WObj:=wobj0;
        MoveL JR2ext_210,v500,z100,Marcket\WObj:=wobj0;
        MoveL JR2ext_220,v500,z100,Marcket\WObj:=wobj0;
        MoveL JR2ext_230,v500,z100,Marcket\WObj:=wobj0;
        MoveL JR2ext_240,v500,z100,Marcket\WObj:=wobj0;
        MoveL JR2ext_250,v500,z100,Marcket\WObj:=wobj0;
        MoveL JR2ext_260,v500,z100,Marcket\WObj:=wobj0;
        MoveL JR2ext_270,v500,z100,Marcket\WObj:=wobj0;
        MoveL JR2ext_280,v500,z100,Marcket\WObj:=wobj0;
        MoveL JR2ext_290,v500,z100,Marcket\WObj:=wobj0;
        MoveL JR2ext_300,v500,z100,Marcket\WObj:=wobj0;
        MoveL JR2ext_310,v500,z100,Marcket\WObj:=wobj0;
        MoveL JR2ext_320,v500,z100,Marcket\WObj:=wobj0;
        MoveL JR2ext_330,v500,z100,Marcket\WObj:=wobj0;
        MoveL JR2ext_340,v500,z100,Marcket\WObj:=wobj0;
        MoveL JR2ext_350,v500,z100,Marcket\WObj:=wobj0;
        MoveL JR2ext_360,v500,z100,Marcket\WObj:=wobj0;
        MoveL JR2ext_370,v500,z100,Marcket\WObj:=wobj0;
        MoveL JR2ext_380,v500,z100,Marcket\WObj:=wobj0;
        MoveL JR2ext_390,v500,z100,Marcket\WObj:=wobj0;
    ENDPROC
    PROC R2int()
        MoveL KR2int_10,v500,z100,Marcket\WObj:=wobj0;
        MoveL KR2int_20,v500,z100,Marcket\WObj:=wobj0;
        MoveL KR2int_30,v500,z100,Marcket\WObj:=wobj0;
        MoveL KR2int_40,v500,z100,Marcket\WObj:=wobj0;
        MoveL KR2int_50,v500,z100,Marcket\WObj:=wobj0;
        MoveL KR2int_60,v500,z100,Marcket\WObj:=wobj0;
        MoveL KR2int_70,v500,z100,Marcket\WObj:=wobj0;
        MoveL KR2int_80,v500,z100,Marcket\WObj:=wobj0;
        MoveL KR2int_90,v500,z100,Marcket\WObj:=wobj0;
    ENDPROC
    PROC Renault()
        MoveL RA,v500,fine,Marcket\WObj:=wobj0;
        MoveL RB,v500,fine,Marcket\WObj:=wobj0;
        MoveL RC,v500,fine,Marcket\WObj:=wobj0;
        MoveL RD,v500,fine,Marcket\WObj:=wobj0;
        MoveL RE,v500,fine,Marcket\WObj:=wobj0;
        MoveL RF,v500,fine,Marcket\WObj:=wobj0;
        MoveL RA,v500,fine,Marcket\WObj:=wobj0;
        MoveL RH,v500,fine,Marcket\WObj:=wobj0;
        MoveL RI,v500,fine,Marcket\WObj:=wobj0;
        MoveL PreworkLogo,v500,fine,Marcket\WObj:=wobj0;
        MoveL RD,v500,fine,Marcket\WObj:=wobj0;
        MoveL RJ,v500,fine,Marcket\WObj:=wobj0;
        MoveL RG,v500,fine,Marcket\WObj:=wobj0;
        MoveL PreworkLogo,v500,fine,Marcket\WObj:=wobj0;
        MoveL RF,v500,fine,Marcket\WObj:=wobj0;
        MoveL RJ,v500,fine,Marcket\WObj:=wobj0;
        MoveL PreworkLogo,v500,fine,Marcket\WObj:=wobj0;
        MoveL RH,v500,fine,Marcket\WObj:=wobj0;
        MoveL RC,v500,fine,Marcket\WObj:=wobj0;
        MoveL PreworkLogo,v500,fine,Marcket\WObj:=wobj0;
    ENDPROC
    PROC ToPreworkDR()
        MoveL PreworkDR,v500,fine,Marcket\WObj:=wobj0;
    ENDPROC
    PROC ToPreworkJR()
        MoveL PreworkJR,v500,fine,Marcket\WObj:=wobj0;
    ENDPROC
    PROC ToHome()
        MoveL Home_2,v1000,z100,Marcket\WObj:=wobj0;
    ENDPROC
ENDMODULE